rospo-icon-theme-classic-common/48x48/apps/JavaFXSceneBuilder2.0.svg

<svg height="48" viewBox="0 0 48 48" width="48" xmlns="http://www.w3.org/2000/svg"><g transform="translate(0 -1004.3622)"><path d="m9.3022674 1011.3694c-.7097166.034-1.4009972.1873-1.9866065.4359-1.1712187.4969-2.0045633 1.24-2.6956902 2.0364-.2410124.2777-1.0454692.847-1.4767694 2.5407s.1974723 3.2754.7501051 4.2352c1.1052654 1.9196 2.7207026 3.736 6.1453926 7.925.44857.5488.74156.9091 1.16618 1.4288-.531883.283-1.072996.5572-1.5158387 1.0045-1.2076555 1.2197-1.7408768 2.8959-1.7814996 4.3036-.050717 1.7574.7295197 3.116 1.5080238 4.0162.7785045.9003 1.6367695 1.493 2.5413725 1.9564.566706.2904.646679.2849.941538.3927.294859.108.645017.2309 1.056789.3714.823541.281 1.891319.6322 3.10981 1.026 2.436982.7879 5.467177 1.74 8.217948 2.572 1.310325.3965 2.354955.6901 3.637229.7447.799801.034 1.721722-.1944 2.594113-.5277.530554-.1346 1.027857-.3768 1.461143-.7114.910478-.7073 2.9559-2.442 5.143298-4.3016 2.187398-1.8597 3.918436-3.2985 4.869823-4.2156.315817-.3045.72136-.6726 1.170086-1.374.448727-.7014.806153-1.7977.836055-2.6932.05981-1.791-.403389-2.6259-.86731-3.9811-1.058929-3.0934-2.469297-6.3632-3.861869-9.1231-.696285-1.3799-1.383443-2.625-2.058882-3.6918-.675165-1.0665-1.132599-1.8896-2.363612-2.869-1.607275-1.2788-3.190271-1.6057-4.711665-1.3147-1.233143.2548-2.052606.7619-2.89877 1.4181-1.148946-.3724-2.35359-.5817-3.094183-.4319h-.002c-1.560653.3158-2.66823.9636-3.670437 2.0268-.968847-.2578-2.012222.1233-2.934005.4808-.130423.049-.258219.104-.382865.1661-.602172.2972-1.170427.6355-1.740479 1.0847-.563323-.6459-1.341494-1.5706-1.765872-2.0345-1.196493-1.3577-2.304323-2.2728-3.236782-2.6092-.665628-.2347-1.394094-.321-2.1038106-.2873z" opacity=".2"/><path d="m9.3022674 1010.3694c-.7097166.034-1.4009972.1873-1.9866065.4359-1.1712187.4969-2.0045633 1.24-2.6956902 2.0364-.2410124.2777-1.0454692.847-1.4767694 2.5407s.1974723 3.2754.7501051 4.2352c1.1052654 1.9196 2.7207026 3.736 6.1453926 7.925.44857.5488.74156.9091 1.16618 1.4288-.531883.283-1.072996.5572-1.5158387 1.0045-1.2076555 1.2197-1.7408768 2.8959-1.7814996 4.3036-.050717 1.7574.7295197 3.116 1.5080238 4.0162.7785045.9003 1.6367695 1.493 2.5413725 1.9564.566706.2904.646679.2849.941538.3927.294859.108.645017.2309 1.056789.3714.823541.281 1.891319.6322 3.10981 1.026 2.436982.7879 5.467177 1.74 8.217948 2.572 1.310325.3965 2.354955.6901 3.637229.7447.799801.034 1.721722-.1944 2.594113-.5277.530554-.1346 1.027857-.3768 1.461143-.7114.910478-.7073 2.9559-2.442 5.143298-4.3016 2.187398-1.8597 3.918436-3.2985 4.869823-4.2156.315817-.3045.72136-.6726 1.170086-1.374.448727-.7014.806153-1.7977.836055-2.6932.05981-1.791-.403389-2.6259-.86731-3.9811-1.058929-3.0934-2.469297-6.3632-3.861869-9.1231-.696285-1.3799-1.383443-2.625-2.058882-3.6918-.675165-1.0665-1.132599-1.8896-2.363612-2.869-1.607275-1.2788-3.190271-1.6057-4.711665-1.3147-1.233143.2548-2.052606.7619-2.89877 1.4181-1.148946-.3724-2.35359-.5817-3.094183-.4319h-.002c-1.560653.3158-2.66823.9636-3.670437 2.0268-.968847-.2578-2.012222.1233-2.934005.4808-.130423.049-.258219.104-.382865.1661-.602172.2972-1.170427.6355-1.740479 1.0847-.563323-.6459-1.341494-1.5706-1.765872-2.0345-1.196493-1.3577-2.304323-2.2728-3.236782-2.6092-.665628-.2347-1.394094-.321-2.1038106-.2873z" fill="#4f4f4f"/><path d="m30.525685 1041.9577c1.202964-.934 8.914841-7.4871 9.689213-8.2332 1.019743-.9826 1.028342-1.2401.129142-3.8655-1.967743-5.7454-5.429065-12.6018-6.987123-13.8404-.648528-.5157-1.84521-.5079-2.686046.016-1.172591.7325-1.1205 1.718.214449 4.0573.480882.8427.874323 1.5894.874323 1.6595 0 .07-.167028.1272-.371173.1272-.261353 0-.858654-.7429-2.018921-2.5113-1.765499-2.691-2.275106-3.1188-3.435107-2.8843-.874522.1769-1.870849.8549-2.199249 1.4968-.379788.7423-.22294 1.1174 1.545184 3.6963 1.086043 1.5841 1.382356 2.1507 1.213714 2.3212-.122718.124-.284994.2254-.360615.2254-.07562 0-1.064513-1.2744-2.19751-2.8321-.724501-.9961-1.289653-1.7283-1.711229-2.215-.724854-.9901-1.412322-.6827-2.301296-.3545-.636309.3139-1.279904.7662-1.597188 1.1866-.745957.9885-.635821 1.6126.589169 3.3384.588893.8296 1.462887 1.9949 1.942213 2.5896.839146 1.0413 1.041791 1.7752.536551 1.9431-.29376.097-.141304.2661-5.77448-6.3786-3.488669-4.1151-5.126873-5.905-5.536517-6.0494-.7715217-.2719-1.6117128.084-2.4361272 1.0336-1.2189 1.4033-1.3620536 1.1548 5.4936202 9.5364 3.365298 4.1143 6.204159 7.5926 6.308589 7.7295.387492.508-.09498.4718-1.933897-.1444-1.54807-.5188-2.109166-.6183-3.122749-.553-1.679615.1399-2.443488 1.0671-2.480471 2.348-.02583.8946.828655 1.7565 1.874027 2.2917.598162.3064 7.216975 2.4449 12.65873 4.0902 2.377914.719 3.326528.7594 4.080774.1736z" opacity=".2"/><path d="m30.525685 1040.9577c1.202964-.934 8.914841-7.4871 9.689213-8.2332 1.019743-.9826 1.028342-1.2401.129142-3.8655-1.967743-5.7454-5.429065-12.6018-6.987123-13.8404-.648528-.5157-1.84521-.5079-2.686046.016-1.172591.7325-1.1205 1.718.214449 4.0573.480882.8427.874323 1.5894.874323 1.6595 0 .07-.167028.1272-.371173.1272-.261353 0-.858654-.7429-2.018921-2.5113-1.765499-2.691-2.275106-3.1188-3.435107-2.8843-.874522.1769-1.870849.8549-2.199249 1.4968-.379788.7423-.22294 1.1174 1.545184 3.6963 1.086043 1.5841 1.382356 2.1507 1.213714 2.3212-.122718.124-.284994.2254-.360615.2254-.07562 0-1.064513-1.2744-2.19751-2.8321-.724501-.9961-1.289653-1.7283-1.711229-2.215-.724854-.9901-1.412322-.6827-2.301296-.3545-.636309.3139-1.279904.7662-1.597188 1.1866-.745957.9885-.635821 1.6126.589169 3.3384.588893.8296 1.462887 1.9949 1.942213 2.5896.839146 1.0413 1.041791 1.7752.536551 1.9431-.29376.097-.141304.2661-5.77448-6.3786-3.488669-4.1151-5.126873-5.905-5.536517-6.0494-.7715217-.2719-1.6117128.084-2.4361272 1.0336-1.2189 1.4033-1.3620536 1.1548 5.4936202 9.5364 3.365298 4.1143 6.204159 7.5926 6.308589 7.7295.387492.508-.09498.4718-1.933897-.1444-1.54807-.5188-2.109166-.6183-3.122749-.553-1.679615.1399-2.443488 1.0671-2.480471 2.348-.02583.8946.828655 1.7565 1.874027 2.2917.598162.3064 7.216975 2.4449 12.65873 4.0902 2.377914.719 3.326528.7594 4.080774.1736z" fill="#fff"/><path d="m9.3027344 6.0078125c-.7097166.034-1.4007188.1869469-1.9863282.4355469-1.1712186.4969-2.0061387 1.2407094-2.6972656 2.0371094-.2410124.2776999-1.0452623.8453624-1.4765625 2.5390622-.1431706.562226-.1621721 1.110015-.1132812 1.628907.0230044-.207217.0593687-.417194.1132812-.628907.4313002-1.6937 1.2355501-2.2613623 1.4765625-2.5390622.6911269-.7964 1.526047-1.5402094 2.6972656-2.0371094.5856094-.2486 1.2766116-.4015469 1.9863282-.4355469.7097166-.0337 1.4378876.0524094 2.1035156.2871094.932459.3364 2.039835 1.251675 3.236328 2.609375.424378.4639001 1.202302 1.3873031 1.765625 2.0332031.570052-.4492 1.138063-.786784 1.740235-1.083984.124646-.0621.252389-.117016.382812-.166016.921783-.3575 1.9667-.7382687 2.935547-.480469 1.002207-1.0631997 2.109269-1.7115435 3.669922-2.0273435h.001953c.740593-.1498 1.944804.0592406 3.09375.4316406.846164-.6562 1.665294-1.1631687 2.898437-1.4179687 1.521394-.291 3.105616.0356531 4.712891 1.3144531 1.231013.9794 1.688116 1.8026405 2.363281 2.8691405.675439 1.0668 1.362309 2.311506 2.058594 3.691406 1.392572 2.7599 2.802399 6.029647 3.861328 9.123047.390477 1.140655.759868 1.946662.837891 3.230469.007644-.082197.026644-.168595.029297-.248047.05981-1.791-.403267-2.627222-.867188-3.982422-1.058929-3.0934-2.468756-6.363147-3.861328-9.123047-.696285-1.3799-1.383155-2.624606-2.058594-3.691406-.675165-1.0664999-1.132268-1.8897405-2.363281-2.8691405-1.607275-1.2788-3.191497-1.6054531-4.712891-1.3144531-1.233143.2548-2.052273.7617687-2.898437 1.4179687-1.148946-.3724-2.353157-.5814406-3.09375-.4316406h-.001953c-1.560653.3158-2.667715.9641438-3.669922 2.0273437-.968847-.2577999-2.013764.1229688-2.935547.4804688-.130423.049-.258166.1039156-.382812.1660156-.602172.2972004-1.170183.6347844-1.740235 1.0839844-.563323-.6459-1.341247-1.5693031-1.765625-2.0332031-1.196493-1.3577-2.303869-2.272975-3.236328-2.609375-.665628-.2347-1.393799-.3208094-2.1035156-.2871094zm1.3417966 18.9140625c-.33898.193464-.669108.402558-.9550779.691406-1.2076555 1.2197-1.7406272 2.896988-1.78125 4.304688-.0073048.253119.006567.494074.03125.730469.0956419-1.349538.6166277-2.890481 1.75-4.035157.4428429-.4473.9837419-.720906 1.5156249-1.003906-.204165-.249882-.385317-.472648-.560547-.6875z" fill="#fff" opacity=".1" transform="translate(0 1004.3622)"/></g></svg>

<svg xmlns="http://www.w3.org/2000/svg" width="48" height="48" version="1.1" viewBox="0 0 48 48">
 <g transform="translate(0,-1004.3622)">
  <path style="opacity:0.2" d="m 9.3022674,1011.3694 c -0.7097166,0.034 -1.4009972,0.1873 -1.9866065,0.4359 -1.1712187,0.4969 -2.0045633,1.24 -2.6956902,2.0364 -0.2410124,0.2777 -1.0454692,0.847 -1.4767694,2.5407 -0.4313002,1.6937 0.1974723,3.2754 0.7501051,4.2352 1.1052654,1.9196 2.7207026,3.736 6.1453926,7.925 0.44857,0.5488 0.74156,0.9091 1.16618,1.4288 -0.531883,0.283 -1.072996,0.5572 -1.5158387,1.0045 -1.2076555,1.2197 -1.7408768,2.8959 -1.7814996,4.3036 -0.050717,1.7574 0.7295197,3.116 1.5080238,4.0162 0.7785045,0.9003 1.6367695,1.493 2.5413725,1.9564 l 0,0 c 0.566706,0.2904 0.646679,0.2849 0.941538,0.3927 0.294859,0.108 0.645017,0.2309 1.056789,0.3714 0.823541,0.281 1.891319,0.6322 3.10981,1.026 2.436982,0.7879 5.467177,1.74 8.217948,2.572 1.310325,0.3965 2.354955,0.6901 3.637229,0.7447 0.799801,0.034 1.721722,-0.1944 2.594113,-0.5277 0.530554,-0.1346 1.027857,-0.3768 1.461143,-0.7114 0.910478,-0.7073 2.9559,-2.442 5.143298,-4.3016 2.187398,-1.8597 3.918436,-3.2985 4.869823,-4.2156 0.315817,-0.3045 0.72136,-0.6726 1.170086,-1.374 0.448727,-0.7014 0.806153,-1.7977 0.836055,-2.6932 0.05981,-1.791 -0.403389,-2.6259 -0.86731,-3.9811 -1.058929,-3.0934 -2.469297,-6.3632 -3.861869,-9.1231 -0.696285,-1.3799 -1.383443,-2.625 -2.058882,-3.6918 -0.675165,-1.0665 -1.132599,-1.8896 -2.363612,-2.869 -1.607275,-1.2788 -3.190271,-1.6057 -4.711665,-1.3147 -1.233143,0.2548 -2.052606,0.7619 -2.89877,1.4181 -1.148946,-0.3724 -2.35359,-0.5817 -3.094183,-0.4319 l -0.002,0 c -1.560653,0.3158 -2.66823,0.9636 -3.670437,2.0268 -0.968847,-0.2578 -2.012222,0.1233 -2.934005,0.4808 -0.130423,0.049 -0.258219,0.104 -0.382865,0.1661 -0.602172,0.2972 -1.170427,0.6355 -1.740479,1.0847 -0.563323,-0.6459 -1.341494,-1.5706 -1.765872,-2.0345 -1.196493,-1.3577 -2.304323,-2.2728 -3.236782,-2.6092 -0.665628,-0.2347 -1.394094,-0.321 -2.1038106,-0.2873 z"/>
  <path style="fill:#4f4f4f" d="m 9.3022674,1010.3694 c -0.7097166,0.034 -1.4009972,0.1873 -1.9866065,0.4359 -1.1712187,0.4969 -2.0045633,1.24 -2.6956902,2.0364 -0.2410124,0.2777 -1.0454692,0.847 -1.4767694,2.5407 -0.4313002,1.6937 0.1974723,3.2754 0.7501051,4.2352 1.1052654,1.9196 2.7207026,3.736 6.1453926,7.925 0.44857,0.5488 0.74156,0.9091 1.16618,1.4288 -0.531883,0.283 -1.072996,0.5572 -1.5158387,1.0045 -1.2076555,1.2197 -1.7408768,2.8959 -1.7814996,4.3036 -0.050717,1.7574 0.7295197,3.116 1.5080238,4.0162 0.7785045,0.9003 1.6367695,1.493 2.5413725,1.9564 l 0,0 c 0.566706,0.2904 0.646679,0.2849 0.941538,0.3927 0.294859,0.108 0.645017,0.2309 1.056789,0.3714 0.823541,0.281 1.891319,0.6322 3.10981,1.026 2.436982,0.7879 5.467177,1.74 8.217948,2.572 1.310325,0.3965 2.354955,0.6901 3.637229,0.7447 0.799801,0.034 1.721722,-0.1944 2.594113,-0.5277 0.530554,-0.1346 1.027857,-0.3768 1.461143,-0.7114 0.910478,-0.7073 2.9559,-2.442 5.143298,-4.3016 2.187398,-1.8597 3.918436,-3.2985 4.869823,-4.2156 0.315817,-0.3045 0.72136,-0.6726 1.170086,-1.374 0.448727,-0.7014 0.806153,-1.7977 0.836055,-2.6932 0.05981,-1.791 -0.403389,-2.6259 -0.86731,-3.9811 -1.058929,-3.0934 -2.469297,-6.3632 -3.861869,-9.1231 -0.696285,-1.3799 -1.383443,-2.625 -2.058882,-3.6918 -0.675165,-1.0665 -1.132599,-1.8896 -2.363612,-2.869 -1.607275,-1.2788 -3.190271,-1.6057 -4.711665,-1.3147 -1.233143,0.2548 -2.052606,0.7619 -2.89877,1.4181 -1.148946,-0.3724 -2.35359,-0.5817 -3.094183,-0.4319 l -0.002,0 c -1.560653,0.3158 -2.66823,0.9636 -3.670437,2.0268 -0.968847,-0.2578 -2.012222,0.1233 -2.934005,0.4808 -0.130423,0.049 -0.258219,0.104 -0.382865,0.1661 -0.602172,0.2972 -1.170427,0.6355 -1.740479,1.0847 -0.563323,-0.6459 -1.341494,-1.5706 -1.765872,-2.0345 -1.196493,-1.3577 -2.304323,-2.2728 -3.236782,-2.6092 -0.665628,-0.2347 -1.394094,-0.321 -2.1038106,-0.2873 z"/>
  <path style="opacity:0.2" d="m 30.525685,1041.9577 c 1.202964,-0.934 8.914841,-7.4871 9.689213,-8.2332 1.019743,-0.9826 1.028342,-1.2401 0.129142,-3.8655 -1.967743,-5.7454 -5.429065,-12.6018 -6.987123,-13.8404 -0.648528,-0.5157 -1.84521,-0.5079 -2.686046,0.016 -1.172591,0.7325 -1.1205,1.718 0.214449,4.0573 0.480882,0.8427 0.874323,1.5894 0.874323,1.6595 0,0.07 -0.167028,0.1272 -0.371173,0.1272 -0.261353,0 -0.858654,-0.7429 -2.018921,-2.5113 -1.765499,-2.691 -2.275106,-3.1188 -3.435107,-2.8843 -0.874522,0.1769 -1.870849,0.8549 -2.199249,1.4968 -0.379788,0.7423 -0.22294,1.1174 1.545184,3.6963 1.086043,1.5841 1.382356,2.1507 1.213714,2.3212 -0.122718,0.124 -0.284994,0.2254 -0.360615,0.2254 -0.07562,0 -1.064513,-1.2744 -2.19751,-2.8321 -0.724501,-0.9961 -1.289653,-1.7283 -1.711229,-2.215 -0.724854,-0.9901 -1.412322,-0.6827 -2.301296,-0.3545 -0.636309,0.3139 -1.279904,0.7662 -1.597188,1.1866 -0.745957,0.9885 -0.635821,1.6126 0.589169,3.3384 0.588893,0.8296 1.462887,1.9949 1.942213,2.5896 0.839146,1.0413 1.041791,1.7752 0.536551,1.9431 -0.29376,0.097 -0.141304,0.2661 -5.77448,-6.3786 -3.488669,-4.1151 -5.126873,-5.905 -5.536517,-6.0494 -0.7715217,-0.2719 -1.6117128,0.084 -2.4361272,1.0336 -1.2189,1.4033 -1.3620536,1.1548 5.4936202,9.5364 3.365298,4.1143 6.204159,7.5926 6.308589,7.7295 0.387492,0.508 -0.09498,0.4718 -1.933897,-0.1444 -1.54807,-0.5188 -2.109166,-0.6183 -3.122749,-0.553 -1.679615,0.1399 -2.443488,1.0671 -2.480471,2.348 -0.02583,0.8946 0.828655,1.7565 1.874027,2.2917 0.598162,0.3064 7.216975,2.4449 12.65873,4.0902 2.377914,0.719 3.326528,0.7594 4.080774,0.1736 z"/>
  <path style="fill:#ffffff" d="m 30.525685,1040.9577 c 1.202964,-0.934 8.914841,-7.4871 9.689213,-8.2332 1.019743,-0.9826 1.028342,-1.2401 0.129142,-3.8655 -1.967743,-5.7454 -5.429065,-12.6018 -6.987123,-13.8404 -0.648528,-0.5157 -1.84521,-0.5079 -2.686046,0.016 -1.172591,0.7325 -1.1205,1.718 0.214449,4.0573 0.480882,0.8427 0.874323,1.5894 0.874323,1.6595 0,0.07 -0.167028,0.1272 -0.371173,0.1272 -0.261353,0 -0.858654,-0.7429 -2.018921,-2.5113 -1.765499,-2.691 -2.275106,-3.1188 -3.435107,-2.8843 -0.874522,0.1769 -1.870849,0.8549 -2.199249,1.4968 -0.379788,0.7423 -0.22294,1.1174 1.545184,3.6963 1.086043,1.5841 1.382356,2.1507 1.213714,2.3212 -0.122718,0.124 -0.284994,0.2254 -0.360615,0.2254 -0.07562,0 -1.064513,-1.2744 -2.19751,-2.8321 -0.724501,-0.9961 -1.289653,-1.7283 -1.711229,-2.215 -0.724854,-0.9901 -1.412322,-0.6827 -2.301296,-0.3545 -0.636309,0.3139 -1.279904,0.7662 -1.597188,1.1866 -0.745957,0.9885 -0.635821,1.6126 0.589169,3.3384 0.588893,0.8296 1.462887,1.9949 1.942213,2.5896 0.839146,1.0413 1.041791,1.7752 0.536551,1.9431 -0.29376,0.097 -0.141304,0.2661 -5.77448,-6.3786 -3.488669,-4.1151 -5.126873,-5.905 -5.536517,-6.0494 -0.7715217,-0.2719 -1.6117128,0.084 -2.4361272,1.0336 -1.2189,1.4033 -1.3620536,1.1548 5.4936202,9.5364 3.365298,4.1143 6.204159,7.5926 6.308589,7.7295 0.387492,0.508 -0.09498,0.4718 -1.933897,-0.1444 -1.54807,-0.5188 -2.109166,-0.6183 -3.122749,-0.553 -1.679615,0.1399 -2.443488,1.0671 -2.480471,2.348 -0.02583,0.8946 0.828655,1.7565 1.874027,2.2917 0.598162,0.3064 7.216975,2.4449 12.65873,4.0902 2.377914,0.719 3.326528,0.7594 4.080774,0.1736 z"/>
  <path style="opacity:0.1;fill:#ffffff" d="M 9.3027344 6.0078125 C 8.5930178 6.0418125 7.9020156 6.1947594 7.3164062 6.4433594 C 6.1451876 6.9402594 5.3102675 7.6840688 4.6191406 8.4804688 C 4.3781282 8.7581687 3.5738783 9.3258312 3.1425781 11.019531 C 2.9994075 11.581757 2.980406 12.129546 3.0292969 12.648438 C 3.0523013 12.441221 3.0886656 12.231244 3.1425781 12.019531 C 3.5738783 10.325831 4.3781282 9.7581687 4.6191406 9.4804688 C 5.3102675 8.6840688 6.1451876 7.9402594 7.3164062 7.4433594 C 7.9020156 7.1947594 8.5930178 7.0418125 9.3027344 7.0078125 C 10.012451 6.9741125 10.740622 7.0602219 11.40625 7.2949219 C 12.338709 7.6313219 13.446085 8.5465969 14.642578 9.9042969 C 15.066956 10.368197 15.84488 11.2916 16.408203 11.9375 C 16.978255 11.4883 17.546266 11.150716 18.148438 10.853516 C 18.273084 10.791416 18.400827 10.7365 18.53125 10.6875 C 19.453033 10.33 20.49795 9.9492313 21.466797 10.207031 C 22.469004 9.1438313 23.576066 8.4954875 25.136719 8.1796875 L 25.138672 8.1796875 C 25.879265 8.0298875 27.083476 8.2389281 28.232422 8.6113281 C 29.078586 7.9551281 29.897716 7.4481594 31.130859 7.1933594 C 32.652253 6.9023594 34.236475 7.2290125 35.84375 8.5078125 C 37.074763 9.4872125 37.531866 10.310453 38.207031 11.376953 C 38.88247 12.443753 39.56934 13.688459 40.265625 15.068359 C 41.658197 17.828259 43.068024 21.098006 44.126953 24.191406 C 44.51743 25.332061 44.886821 26.138068 44.964844 27.421875 C 44.972488 27.339678 44.991488 27.25328 44.994141 27.173828 C 45.053951 25.382828 44.590874 24.546606 44.126953 23.191406 C 43.068024 20.098006 41.658197 16.828259 40.265625 14.068359 C 39.56934 12.688459 38.88247 11.443753 38.207031 10.376953 C 37.531866 9.3104531 37.074763 8.4872125 35.84375 7.5078125 C 34.236475 6.2290125 32.652253 5.9023594 31.130859 6.1933594 C 29.897716 6.4481594 29.078586 6.9551281 28.232422 7.6113281 C 27.083476 7.2389281 25.879265 7.0298875 25.138672 7.1796875 L 25.136719 7.1796875 C 23.576066 7.4954875 22.469004 8.1438313 21.466797 9.2070312 C 20.49795 8.9492313 19.453033 9.33 18.53125 9.6875 C 18.400827 9.7365 18.273084 9.7914156 18.148438 9.8535156 C 17.546266 10.150716 16.978255 10.4883 16.408203 10.9375 C 15.84488 10.2916 15.066956 9.3681969 14.642578 8.9042969 C 13.446085 7.5465969 12.338709 6.6313219 11.40625 6.2949219 C 10.740622 6.0602219 10.012451 5.9741125 9.3027344 6.0078125 z M 10.644531 24.921875 C 10.305551 25.115339 9.975423 25.324433 9.6894531 25.613281 C 8.4817976 26.832981 7.9488259 28.510269 7.9082031 29.917969 C 7.9008983 30.171088 7.9147701 30.412043 7.9394531 30.648438 C 8.035095 29.2989 8.5560808 27.757957 9.6894531 26.613281 C 10.132296 26.165981 10.673195 25.892375 11.205078 25.609375 C 11.000913 25.359493 10.819761 25.136727 10.644531 24.921875 z" transform="translate(0,1004.3622)"/>
 </g>
</svg>
